X: 2
T: The Cheticamp
R: barndance
M: 4/4
L: 1/8
Z: Contributed 2016-04-26 01:01:14 by jim Gaskins fiddeji@comcast.net
K: Gmaj
|: AF |GcBA G2 G2 | BdgB d2 d2 | dgfe c2 c2 | cedc B2 AF |
GcBA G2 G2 | BdgB d4 | dgfe dcBA | G2 g2 G2 :|
|: d2 |c2 e2 c2 ec | B2 dB GBdG | A2 FE DFAF | G2 gf gdBG |
c2 e2 cGec | BcdB G2 dG | A2 FE D2 AF | G2 B2 G2 :|
